X:1
T:James Gibb editions
T:When others sing - Dowland
%%score [ 1 2 ]
L:1/8
Q:1/4=140
M:4/4
K:C
V:1 treble nm="Soprano" snm="S"
V:2 bass nm="Bass" snm="B"
V:1
"^When others sing 'Venite exultemus'""^John Dowland\n(1563-1626)" z4 D4 | D4 D4 | D8 | D4 G4- | %4
w: When|o- thers|sing||
w: |||Ve- ni\-|
 G4 B4 | A6 A2 | G4 G4 | z4 E4 | E4 E4 |[M:4/4] E8 | E4 A4- | A4 c4 | B6 B2 | A4 A4 | z4 ^F4 | %15
w: |||Stand|by and|turn|to *||||For|
w: * te|ex- ul-|te- mus,||||* No\-|* li|e- mu-|la- ri,||
 ^F3 F F2 F2 | ^F4 F4 | G4 B4- | B4 A4- | A4 A4 | z4 d4- | d2 c2 B4 | A4 A4 | z8 | z4 d4- | %25
w: ||use *||||||||
w: Qua- re fre- mu-|e- runt|* O\-|* re\-|* mus;|Vi\-|* vat E-|li- za,||Vi\-|
 d2 c2 B4 | A4 A4 | z4 G2 A2 | B2 (G2 A4) | G4 G4 |: z4 E4 | D4 G4 | ^F4 G4 | A4 B4 | c4 B4 | A8 | %36
w: ||for an|||And|teach those|swains that|live a-|bout thy|cell|
w: * vat E-|li- za,||A- ve *|Ma- ri,|||||||
 z4 A4 | B4 (d4- | d2 A2 c4) | B4 (e4- | e2 B2 d4 | c4 B4) | A4 D4 | (E2 ^F2) (G2 A2) | %44
w: To|sing *|||||* when|thou * dost *|
w: |* A\-||men, A\-|||men *||
[Q:1/4=140] B4[Q:1/4=140] A4 |[Q:1/4=140] G8 :| %46
w: pray so|well.|
w: ||
V:2
 G,8 | ^F,4 G,4 | D,6 C,2 | B,,2 A,,2 G,,4 | C,4 B,,4 | C,4 D,4 | G,,4 G,,4 | A,8 | ^G,4 A,4 | %9
w: When|o- thers|sing *|||||Stand|by and|
w: ||* Ve-|ni- te, ve-|ni- te|ex- ul-|te- mus,|||
[M:4/4] E,6 D,2 | C,2 B,,2 A,,4 | D,4 C,4 | D,4 E,4 | A,,4 A,,4 | D,8 | D,3 D, D,2 D,2 | D,4 D,4 | %17
w: turn to|* * to||||For|||
w: |No- li, *|No- li|e- mu-|la- ri,||Qua- re fre- mu-|e- runt|
 G,,6 G,,2 | D,8 | D,8 | (D,6 E,2) | ^F,4 G,4 | D,8 | G,8 | (D,6 E,2) | ^F,4 G,4 | D,4 D,4 | %27
w: use *||||||||||
w: * O-|re-|mus;|Vi\- *|vat E-|li-|za,|Vi\- *|vat E-|li- za,|
 G,,4 G,,4 | G,,4 D,4 | G,,4 G,,4 |: C,8 | B,,4 (A,,2 G,,2) | D,4 (C,2 B,,2) | A,,4 G,,4 | %34
w: for an|||And|teach those *|swains that *|live a-|
w: |A- ve|Ma- ri,|||||
 C,4 G,,4 | D,6 D,2 | (E,4 ^F,4) | (G,6 D,2) | ^F,4 (E,4 | G,4) (C,4- | C,2 G,,2 B,,4 | %41
w: bout thy|cell To|sing *|||||
w: |||A\- *|* men,|* A\-||
 E,,4 G,,4) | D,,4 B,,4 | C,4 E,4 | D,6 D,2 | G,,8 :| %46
w: |* when|thou dost|pray so|well.|
w: |men *||||

